icon/lg/grammarly-icon.svg

<?xml version="1.0" encoding="UTF-8"?>
<svg viewBox="0 0 256 257" version="1.1" xmlns="http://www.w3.org/2000/svg" preserveAspectRatio="xMidYMid" height="1em" width="1em">
  <g>
    <path d="M128,0 C198.69589,0 256,57.3601652 256,128.125456 C256,196.715677 202.156273,252.720291 134.46426,256.090369 L121.536024,256.090369 C53.8486495,252.720193 0,196.715617 0,128.125456 C0,57.3601652 57.3094488,0 128,0 Z" fill="#15C39A"/>
    <path d="M122.864305,53.0038997 C151.607115,51.0766792 177.168144,65.2986049 191.392739,87.5257023 C193.642942,91.4041666 192.551206,96.3343274 188.811545,98.9288678 C184.871687,101.66488 179.687944,100.458365 176.725043,96.283611 C166.448314,81.8054345 148.508081,69.8283736 128.056055,69.8283736 C88.8149647,69.8283736 58.7028132,109.234959 74.5182992,150.507372 C81.4851208,168.690509 97.997289,181.70859 117.221446,184.730215 C140.8339,188.437845 162.431047,180.032282 174.869893,161.766396 L174.869893,161.766396 L167.096949,162.858132 L153.683815,162.858132 C149.426313,162.858132 145.486455,159.983317 144.72838,155.789878 C143.732738,150.285822 147.934186,145.489125 153.254061,145.489125 L153.254061,145.489125 L200.348174,145.489125 L200.348174,194.934874 C200.348174,200.260088 195.562155,204.466874 190.058099,203.473902 C185.867328,202.715826 183.000521,198.76796 183.000521,194.510458 L183.000521,194.510458 L183.000521,186.254374 L184.631452,177.120097 C170.857965,193.045023 150.638167,202.889329 128.056055,202.889329 C85.0646258,202.889329 50.4974454,167.275791 52.9985611,123.657081 C55.150001,86.1723771 85.438325,55.5183617 122.864305,53.0038997 Z" fill="#FFFFFF"/>
  </g>
</svg>

<svg width="256" height="257" xmlns="http://www.w3.org/2000/svg" preserveAspectRatio="xMidYMid"><path d="M128 0c70.696 0 128 57.36 128 128.125 0 68.59-53.844 124.595-121.536 127.965h-12.928C53.849 252.72 0 196.716 0 128.125 0 57.36 57.31 0 128 0Z" fill="#15C39A"/><path d="M122.864 53.004c28.743-1.927 54.304 12.295 68.529 34.522 2.25 3.878 1.158 8.808-2.581 11.403-3.94 2.736-9.124 1.53-12.087-2.645-10.277-14.479-28.217-26.456-48.669-26.456-39.241 0-69.353 39.407-53.538 80.68 6.967 18.183 23.48 31.2 42.703 34.222 23.613 3.708 45.21-4.698 57.649-22.964l-7.773 1.092h-13.413c-4.258 0-8.198-2.875-8.956-7.068-.995-5.504 3.206-10.3 8.526-10.3h47.094v49.445a8.685 8.685 0 0 1-10.29 8.539c-4.19-.758-7.057-4.706-7.057-8.964v-8.256l1.63-9.134c-13.773 15.925-33.993 25.77-56.575 25.77-42.991 0-77.559-35.614-75.057-79.233 2.151-37.485 32.44-68.139 69.865-70.653Z" fill="#FFF"/></svg>
